X:1
T:Watching for the Dawning
T:Watching for the Dawning
T:James McGranahan
T:Robert Lowe Fletcher, 1895
T:Public Domain Courtesy of the Cyber Hymnal™
T:Public Domain Courtesy of the Cyber Hymnal™
C:James McGranahan
Z:Public Domain
Z:Courtesy of the Cyber Hymnal™
%%score ( 1 2 ) ( 3 4 )
L:1/8
Q:1/4=90
M:4/4
K:Ab
V:1 treble 
V:2 treble 
V:3 bass 
V:4 bass 
V:1
"^Allegretto" [A,C][B,D] | [CE][Ec][Ec][Ec] [Ec][DB][CA]E | [EG][DF] [DF]>[DF] [DF]2 [DF][DF] | %3
w: 1.~We are|watch- ing, we are wait- ing Till the|mists shall clear a- way, And our|
w: 2.~We are|look- ing for the com- ing Of our|great and glor- ious king, Who shall|
w: 3.~Now by|faith we catch a vi- sion Of that|glad mil- len- nial reign, And be-|
 [DF][Fd][Fd][Fd] [Fd][Ec][DB][DG] | [CA][DB][Ec][CA] [CE]2 [A,C][B,D] | %5
w: Lord shall come in glo- ry With His|saints in bright ar- ray; When the|
w: ban- ish from His pre- sence Ev- ery|dark and e- vil thing; When His|
w: hold the ran- somed mil- lions Who shall|fol- low in His train; And our|
 [CE][Ec][Ec][Ec] [Ec][EB][EA][EG] | [EG][Fd][Fd][Fd] [Fd]2 [Ac][Ad] | %7
w: trump of God re- sound- ing, Shall be|heard on ev- ery shore, And the|
w: jus- tice and His mer- cy Shall pre-|vail in all the world, And o’er|
w: hearts cry out, “Come quick- ly,” That His|beau- ty we may see, And be|
 [Ae][Ac][Af][=Ac] [ce][Bd]_A[FB] | [Ec]<[Ec] [Ec]>[DB] !fermata![CA]2 ||"^Refrain" GA | %10
w: dead in Christ shall wak- en To be|with Him ev- er- more.||
w: ev- ery tribe and na- tion Shall His|ban- ner be un- furled.|We are|
w: with our Lord in glo- ry Thro’ a|blest e- ter- ni- ty.||
 B (BDDDD)cB | B (ACDFE)[EA][GB] | [Ac][Ae][Bd][Bd] (fed)[Ac] | !fermata!B4 !fermata!G2 [Ac][Ad] | %14
w: ||||
w: watch- ing, * * * * we are|wait- ing, * * * * For the|dawn- ing of that glor- * * ious|day, For the com-|
w: ||||
 e4 A2 [_GB][Gc] | d4 [DF]2 [Fd][Fd] | [Ec]2 (dB) [EA]2 [EG]2 | [CA]6 |] %18
w: ||||
w: * ing of our|Sav- ior, With His|saints in * bright ar-|ray.|
w: ||||
V:2
 x2 | x7 E | x8 | x8 | x8 | x8 | x8 | x6 A x | x6 || x2 | x8 | x8 | x4 A3 x | BGAF x4 | %14
 (AAAA) (EE) x2 | (FFFF) x4 | x2 E2 x4 | x6 |] %18
V:3
 [A,,E,][A,,A,] | [A,,A,][A,,A,][A,,A,][A,,A,] [A,,A,][A,,E,][A,,E,][C,A,] | %2
w: ~ ~|~ ~ ~ ~ ~ ~ ~ ~|
 [D,A,][D,A,] [D,A,]>[D,A,] [D,A,]2 [D,A,][D,A,] | %3
w: ~ ~ ~ ~ ~ ~ ~|
 [B,,B,][B,,B,][B,,B,][B,,B,] [E,G,][E,G,][E,G,][E,B,] | %4
w: ~ ~ ~ ~ ~ ~ ~ ~|
 [A,,A,][A,,A,][A,,A,][A,,E,] [A,,A,]2 [A,,E,][A,,A,] | %5
w: ~ ~ ~ ~ ~ ~ ~|
 [A,,A,][A,,A,][A,,A,][A,,A,] [A,,A,][B,,G,][C,A,][C,E,] | %6
w: ~ ~ ~ ~ ~ ~ ~ ~|
 [D,A,][D,A,][D,A,][D,A,] [D,A,]2 A,[A,B,] | [A,C][A,E][A,C][F,F] [F,F][F,F][C,E][D,D] | %8
w: ~ ~ ~ ~ ~ ~ ~|~ ~ ~ ~ ~ ~ ~ ~|
 [E,C]<[E,A,] [E,G,]>[E,G,] !fermata![A,,A,]2 || z2 | z2 [E,G,][E,G,] [E,G,][E,G,] z2 | %11
w: ~ ~ ~ ~ ~||we are watch- ing|
 z2 [A,,A,][A,,B,] [A,,D][A,,C][C,E][E,E] | [A,E][CE][B,E][A,E] D ([CE][B,E])[A,E] | %13
w: we are wait- ing, ~ ~|~ ~ ~ ~ ~ ~ * ~|
 [G,E][B,E][F,=D][B,D] [E,E]2 A,[A,B,] | [A,C][A,C][A,C][A,C] [A,C][A,C]A,A, | %15
w: * that glor- ious day, For the|com- ing of our Sav- ior With His|
 [D,A,][D,A,][D,A,][D,A,] [D,A,]2 [D,A,][D,A,] | [E,A,]2 (G,D) [E,C]2 [E,B,]2 | [A,,A,]6 |] %18
w: saints in bright ar- ray, * *|||
V:4
 x2 | x8 | x8 | x8 | x8 | x8 | x6 A, x | x8 | x6 || x2 | x8 | x8 | x4 D x3 | x6 A, x | x6 A,A, | %15
 x8 | x2 E,2 x4 | x6 |] %18

